X: 072
C: (J.Reeve)
T: a TRIP TO Hengrave
%R: march, reel
B: J.Gray's Twenty four Country Dances (for the Year 1812) p.7 #2
S: http://www.eatmt.org.uk/gray_1812.htm 2014-8-7
Z: 2014 John Chambers <jc:trillian.mit.edu>
M: 2/4
L: 1/8
K: Bb
|:\
(Bd).B.F | (Bd).B.F | (ce).c.A | (ce).c.A |\
(Bd).B.F | (Bd).B.F | (ce)(Ac) | B/B/B B2 :|
|:\
d>eff | f2bg | fdcB | AcAF |\
d>eff | f2bg | fdcd | B/B/B B2 :|
% - - - - - - - - - - - - - - - - - - - - - - - - -
%%begintext align
%% Change sides back again. down
%% the mid: up again. Right & Left.
%%endtext
% - - - - - - - - - - - - - - - - - - - - - - - - -
